packages/icons/svg/Payment_Receipt_64px.svg

<svg xmlns="http://www.w3.org/2000/svg" viewBox="0 0 64 64"><path d="M21 7v38h-6a2 2 0 00-2 2v4.5a7.5 7.5 0 007.5 7.5h23a7.5 7.5 0 007.5-7.5V7a2 2 0 00-2-2H23a2 2 0 00-2 2zm-.5 49a4.51 4.51 0 01-4.5-4.5V48h20v3.5a7.47 7.47 0 001.5 4.5zM48 51.5a4.51 4.51 0 01-5 4.48 4.64 4.64 0 01-4-4.68V47a2 2 0 00-2-2H24V8h24z"/><path d="M29 24a1 1 0 001 1h1.07a7.39 7.39 0 006.79 4.69 7.24 7.24 0 004.81-1.85 1 1 0 10-1.34-1.49 5.22 5.22 0 01-3.47 1.34A5.32 5.32 0 0133.3 25h4.2a1 1 0 000-2h-4.92a5.8 5.8 0 010-1.92h4.92a1 1 0 000-2h-4.2a5.32 5.32 0 014.56-2.69 5.1 5.1 0 013.23 1.14 1 1 0 001.25-1.57 7.13 7.13 0 00-4.48-1.57A7.39 7.39 0 0031.07 19H30a1 1 0 000 2h.56c0 .32-.06.64-.06 1s0 .64.06 1H30a1 1 0 00-1 1z"/></svg>

<svg xmlns="http://www.w3.org/2000/svg" viewBox="0 0 64 64"><defs></defs><g id="Icon"><path  d="M21,7V45H15a2,2,0,0,0-2,2v4.5A7.5,7.5,0,0,0,20.5,59h23A7.5,7.5,0,0,0,51,51.5V7a2,2,0,0,0-2-2H23A2,2,0,0,0,21,7Zm-.5,49A4.51,4.51,0,0,1,16,51.5V48H36v3.5A7.47,7.47,0,0,0,37.5,56ZM48,51.5a4.51,4.51,0,0,1-5,4.48,4.64,4.64,0,0,1-4-4.68V47a2,2,0,0,0-2-2H24V8H48Z"/><path  d="M29,24a1,1,0,0,0,1,1h1.07a7.39,7.39,0,0,0,6.79,4.69,7.24,7.24,0,0,0,4.81-1.85,1,1,0,1,0-1.34-1.49,5.22,5.22,0,0,1-3.47,1.34A5.32,5.32,0,0,1,33.3,25h4.2a1,1,0,0,0,0-2H32.58a5.8,5.8,0,0,1,0-1.92H37.5a1,1,0,0,0,0-2H33.3a5.32,5.32,0,0,1,4.56-2.69,5.1,5.1,0,0,1,3.23,1.14,1,1,0,0,0,1.25-1.57,7.13,7.13,0,0,0-4.48-1.57A7.39,7.39,0,0,0,31.07,19H30a1,1,0,0,0,0,2h.56c0,.32-.06.64-.06,1s0,.64.06,1H30A1,1,0,0,0,29,24Z"/></g></svg>
